synths/sFTM.svg

<svg width="42" height="42" viewBox="0 0 42 42" fill="none" xmlns="http://www.w3.org/2000/svg">
<g clip-path="url(#clip0_7277_57919)">
<mask id="mask0_7277_57919" style="mask-type:alpha" maskUnits="userSpaceOnUse" x="0" y="0" width="42" height="42">
<circle cx="21" cy="21" r="21" transform="matrix(-1 0 0 1 42 0)" fill="url(#paint0_linear_7277_57919)"/>
</mask>
<g mask="url(#mask0_7277_57919)">
<circle cx="21" cy="21" r="21" transform="matrix(-1 0 0 1 42 0)" fill="#34EDB3"/>
<circle cx="18.2" cy="18.2" r="18.2" transform="matrix(-1 0 0 1 39.2 2.80005)" fill="white"/>
</g>
<circle cx="16.1" cy="16.1" r="16.1" transform="matrix(-1 0 0 1 37.1 4.90002)" fill="#0B0B22"/>
<g clip-path="url(#clip1_7277_57919)">
<path d="M21 37.1C29.8918 37.1 37.1 29.8918 37.1 21C37.1 12.1082 29.8918 4.90002 21 4.90002C12.1082 4.90002 4.90002 12.1082 4.90002 21C4.90002 29.8918 12.1082 37.1 21 37.1Z" fill="#13B5EC"/>
<path fill-rule="evenodd" clip-rule="evenodd" d="M22.2075 17.8806L25.83 15.7675V19.9938L22.2075 17.8806ZM25.83 26.9369L21 29.7544L16.17 26.9369V22.0063L21 24.8237L25.83 22.0063V26.9369ZM16.17 15.7675L19.7925 17.8806L16.17 19.9938V15.7675ZM21.6038 18.8869L25.2263 21L21.6038 23.1131V18.8869ZM20.3963 23.1131L16.7738 21L20.3963 18.8869V23.1131ZM25.2263 14.7613L21 17.1762L16.7738 14.7613L21 12.2456L25.2263 14.7613ZM14.9625 14.3587V27.5406L21 30.9619L27.0375 27.5406V14.3587L21 10.9375L14.9625 14.3587Z" fill="white"/>
</g>
</g>
<defs>
<linearGradient id="paint0_linear_7277_57919" x1="21" y1="0" x2="21" y2="61.4091" gradientUnits="userSpaceOnUse">
<stop stop-color="#08021E"/>
<stop offset="1" stop-color="#1F0777"/>
</linearGradient>
<clipPath id="clip0_7277_57919">
<rect width="42" height="42" fill="white"/>
</clipPath>
<clipPath id="clip1_7277_57919">
<rect width="32.2" height="32.2" fill="white" transform="translate(4.90002 4.90002)"/>
</clipPath>
</defs>
</svg>

<svg xmlns="http://www.w3.org/2000/svg" width="42" height="42" fill="none"><g clip-path="url(#a)"><mask id="c" width="42" height="42" x="0" y="0" maskUnits="userSpaceOnUse" style="mask-type:alpha"><circle cx="21" cy="21" r="21" fill="url(#b)" transform="matrix(-1 0 0 1 42 0)"/></mask><g mask="url(#c)"><circle cx="21" cy="21" r="21" fill="#34EDB3" transform="matrix(-1 0 0 1 42 0)"/><circle cx="18.2" cy="18.2" r="18.2" fill="#fff" transform="matrix(-1 0 0 1 39.2 2.8)"/></g><circle cx="16.1" cy="16.1" r="16.1" fill="#0B0B22" transform="matrix(-1 0 0 1 37.1 4.9)"/><g clip-path="url(#d)"><path fill="#13B5EC" d="M21 37.1c8.892 0 16.1-7.208 16.1-16.1 0-8.892-7.208-16.1-16.1-16.1-8.892 0-16.1 7.208-16.1 16.1 0 8.892 7.208 16.1 16.1 16.1Z"/><path fill="#fff" fill-rule="evenodd" d="m22.207 17.88 3.623-2.112v4.226l-3.622-2.113Zm3.623 9.057L21 29.754l-4.83-2.817v-4.93L21 24.823l4.83-2.818v4.93Zm-9.66-11.17 3.622 2.114-3.622 2.113v-4.226Zm5.434 3.12L25.226 21l-3.622 2.113v-4.226Zm-1.208 4.226L16.774 21l3.622-2.113v4.226Zm4.83-8.352L21 17.176l-4.226-2.415L21 12.246l4.226 2.515Zm-10.263-.402V27.54L21 30.96l6.038-3.42V14.359L21 10.938l-6.037 3.42Z" clip-rule="evenodd"/></g></g><defs><clipPath id="a"><path fill="#fff" d="M0 0h42v42H0z"/></clipPath><clipPath id="d"><path fill="#fff" d="M4.9 4.9h32.2v32.2H4.9z"/></clipPath><linearGradient id="b" x1="21" x2="21" y1="0" y2="61.409" gradientUnits="userSpaceOnUse"><stop stop-color="#08021E"/><stop offset="1" stop-color="#1F0777"/></linearGradient></defs></svg>
